X:1
T:Title
%%score { ( 1 3 4 ) | ( 2 5 6 ) }
L:1/8
M:4/4
K:D
V:1 treble nm="Grand Piano"
V:3 treble 
V:4 treble 
V:2 bass 
V:5 bass 
V:6 bass 
V:1
 z4 z2[Q:1/4=100] [A,DF]>[A,EG] | [A,FA]>[A,FA] [A,EG]>[CGB] [DFA]2 [A,DF]>[A,EG] | %2
[M:3/4] [A,FA]>[A,FA] [A,EG]>[CGB] [FA]2 |[M:1/4] [FA]>[FA] |[M:4/4] B>B G>B [Bd]>[Bd] [Ac]>[GB] | %5
 [FA]6 [GB]>[FA] | [EG]>[EG] [CE]>[DF] [EG]2 [CGB]>[CGB] | %7
[M:3/4] [DFA]>[DFA] [A,DF]>[A,EG] [DFA]2 |[M:1/4] [DFA]>[DFA] | %9
[M:4/4] [DGB]>[DBd] [DAc]>[DGB] [DFA]>[DFA] [GB]>[Gc] |[M:3/4] d6 |[M:1/4] F>[EG] | %12
[M:4/4] [FA]6 z2 | [FA]4 z4 | [Gc]6 z z/ A,/ | [GB]4 z4 | [FA]6 z2 | [FA]4 z4 | %18
 [Gc]6 z z/[K:bass] G,/ |[M:3/4] z z/ D/- D4 |] %20
V:2
 z4 z2 D,>D, | D,>D, D,>D, D,2 D,>D, |[M:3/4] D,>D, D,>D, [D,D]2 |[M:1/4] [D,D]>[D,D] | %4
[M:4/4][K:treble] [G,DG]>[G,DG] [G,B,]>[G,DG] [G,D]>[K:bass][G,D] [G,D]>[G,D] | %5
 [D,D]6 [D,A,]>[D,A,] | [A,,A,]>[A,,A,] [A,,A,]>[A,,A,] [A,,A,]2 A,,>A,, |[M:3/4] D,>D, D,>D, D,2 | %8
[M:1/4] D,>D, |[M:4/4] G,>G, G,>G, A,>A, [A,,A,]>[A,,A,] |[M:3/4] [D,A,]2 [D,B,]2 [D,A,]2 | %11
[M:1/4] [D,A,D]>[D,A,] |[M:4/4] [D,D]>D, D,>D, z z/ G/ D,>D, | D,>D, D,>D, [D,A,]2 [D,A,]>[D,A,] | %14
 [A,,A,]>A,, A,,>A,, (3z[K:treble] GF[K:bass] (3z ^DE | [D,A,]>D, D,>D, D,2 D,>D, | %16
 D,>D, D,>D, z z/ G/ D,>D, | D,>D, D,>D, [D,A,]2 [D,A,]>[D,A,] | %18
 [A,,A,]>A,, A,,>A,, (3z[K:treble] GF[K:bass] (3z DC | %19
[M:3/4] [D,F,]>[D,F,] [D,G,]>[D,G,] [D,F,]2 |] %20
V:3
 x8 | x8 |[M:3/4] x6 |[M:1/4] x2 |[M:4/4] x8 | x8 | x8 |[M:3/4] x6 |[M:1/4] x2 |[M:4/4] x8 | %10
[M:3/4] F2 G2 F2 |[M:1/4] x2 |[M:4/4] z z/ D/ D>D z z/ B/ [A,EG]>[CGB] | D>D D>D [DF]2 [FA]>[Fd] | %14
 z z/ A,/ A,>A, (3z BA (3[EG]FG | z z/ A,/ B,>C [DFA]2 [A,DF]>[A,EG] | %16
 D>D D>D z z/ B/ [A,EG]>[CGB] | D>D D>D [DF]2 [FA]>[Fd] | z z/ A,/ A,>A, (3z BA (3[EG]FE[K:bass] | %19
[M:3/4] D2 B,>B, A,2 |] %20
V:4
 x8 | x8 |[M:3/4] x6 |[M:1/4] x2 |[M:4/4] x8 | x8 | x8 |[M:3/4] x6 |[M:1/4] x2 |[M:4/4] x8 | %10
[M:3/4] x6 |[M:1/4] x2 |[M:4/4] z4 D2 z2 | x8 | z4 A,2 z2 | x8 | z4 D2 z2 | x8 | %18
 z4 A,2 z2[K:bass] |[M:3/4] x6 |] %20
V:5
 x8 | x8 |[M:3/4] x6 |[M:1/4] x2 |[M:4/4][K:treble] x11/2[K:bass] x5/2 | x8 | x8 |[M:3/4] x6 | %8
[M:1/4] x2 |[M:4/4] x8 |[M:3/4] x6 |[M:1/4] x2 |[M:4/4] z4 D,2 z2 | x8 | %14
 z4 A,,2[K:treble][K:bass] A,>A,, | x8 | z4 D,2 z2 | x8 | z4 A,,2[K:treble][K:bass] A,>A,, | %19
[M:3/4] x6 |] %20
V:6
 x8 | x8 |[M:3/4] x6 |[M:1/4] x2 |[M:4/4][K:treble] x11/2[K:bass] x5/2 | x8 | x8 |[M:3/4] x6 | %8
[M:1/4] x2 |[M:4/4] x8 |[M:3/4] x6 |[M:1/4] x2 |[M:4/4] x8 | x8 | z4 z2[K:treble][K:bass] A,,2 | %15
 x8 | x8 | x8 | z4 z2[K:treble][K:bass] A,,2 |[M:3/4] x6 |] %20

